src/svgs/eye.svg

<svg width="20" height="22" viewBox="0 0 20 22" fill="none" xmlns="http://www.w3.org/2000/svg">
<g clip-path="url(#clip0)">
<path d="M19.9259 10.7395C19.7684 10.4873 15.9834 4.58301 9.99995 4.58301C4.86569 4.58301 0.29062 10.4534 0.0981168 10.7037C-0.0327056 10.8742 -0.0327056 11.1245 0.0981168 11.2959C0.29062 11.5461 4.86569 17.4166 9.99995 17.4166C15.1342 17.4166 19.7092 11.5461 19.9017 11.2959C20.0226 11.1382 20.0334 10.91 19.9259 10.7395ZM9.99995 16.4999C5.88407 16.4999 1.97065 12.1823 0.97649 10.9998C1.96901 9.81638 5.87825 5.49972 9.99995 5.49972C14.8158 5.49972 18.2151 9.81088 19.0451 10.9751C18.0867 12.12 14.1508 16.4999 9.99995 16.4999Z" fill="#FF8600"/>
<path d="M9.9994 7.33301C8.16104 7.33301 6.66602 8.97754 6.66602 10.9997C6.66602 13.0219 8.16104 14.6664 9.9994 14.6664C11.8377 14.6664 13.3328 13.0219 13.3328 10.9997C13.3328 8.97754 11.8377 7.33301 9.9994 7.33301ZM9.9994 13.7498C8.62105 13.7498 7.49935 12.5159 7.49935 10.9998C7.49935 9.48359 8.62105 8.24972 9.9994 8.24972C11.3777 8.24972 12.4994 9.48359 12.4994 10.9998C12.4994 12.5159 11.3777 13.7498 9.9994 13.7498Z" fill="#FF8600"/>
</g>
<defs>
<clipPath id="clip0">
<rect width="20" height="22" fill="white"/>
</clipPath>
</defs>
</svg>

<svg width="20" height="22" fill="none" xmlns="http://www.w3.org/2000/svg"><g clip-path="url(#a)" fill="#FF8600"><path d="M19.926 10.74c-.158-.253-3.943-6.157-9.926-6.157-5.134 0-9.71 5.87-9.902 6.12-.13.171-.13.421 0 .593.193.25 4.768 6.12 9.902 6.12 5.134 0 9.71-5.87 9.902-6.12a.495.495 0 0 0 .024-.556ZM10 16.5c-4.116 0-8.03-4.318-9.024-5.5C1.97 9.816 5.878 5.5 10 5.5c4.816 0 8.215 4.31 9.045 5.475C18.087 12.12 14.151 16.5 10 16.5Z"/><path d="M10 7.333C8.16 7.333 6.665 8.978 6.665 11s1.495 3.666 3.333 3.666c1.839 0 3.334-1.644 3.334-3.666 0-2.022-1.495-3.667-3.334-3.667Zm0 6.417c-1.379 0-2.5-1.234-2.5-2.75S8.62 8.25 10 8.25c1.378 0 2.5 1.234 2.5 2.75s-1.122 2.75-2.5 2.75Z"/></g><defs><clipPath id="a"><path fill="#fff" d="M0 0h20v22H0z"/></clipPath></defs></svg>
